imgs/ins.svg

<svg width="190" height="189" viewBox="0 0 190 189" fill="none" xmlns="http://www.w3.org/2000/svg">
<path d="M88.987 0.165745C165.172 -4.21219 215.372 79.0292 174.922 144.244C139.601 201.183 57.3781 204.063 18.1532 149.681C-25.3085 89.4293 15.1976 4.40246 88.982 0.165745H88.987ZM68.9786 36.7881C47.3563 38.3668 37.1932 51.3493 36.1945 72.3362C35.5489 85.8987 35.5489 102.977 36.1945 116.539C37.2083 137.793 47.7396 150.816 69.6242 152.198C102.963 149.364 150.929 165.499 153.259 116.539C153.91 102.916 153.935 85.586 153.239 71.9781C152.149 50.6382 141.326 37.933 119.466 36.657C102.918 37.464 85.406 35.5827 68.9736 36.7831L68.9786 36.7881Z" fill="#6FE9B8"/>
<path d="M69.3567 47.7328C86.5104 46.3811 105.54 48.1666 122.805 48.0506C135.041 49.831 141.093 57.6891 142.294 69.7133C141.426 85.833 143.474 103.188 142.294 119.162C141.275 132.916 132.968 140.32 119.456 141.248C103.528 142.348 86.4196 140.421 70.3655 141.268C56.8433 140.814 48.1681 132.684 47.1695 119.162C45.9237 102.296 47.6991 83.3868 47.6537 66.4198C49.8225 54.4964 57.5646 48.6659 69.3618 47.7328H69.3567ZM124.076 57.906C120.414 58.5768 118.614 62.7732 119.849 66.1121C122.124 72.2503 131.288 70.7069 131.742 64.4174C132.06 60.0243 128.303 57.1293 124.081 57.906H124.076ZM90.4899 63.9584C69.271 66.2079 57.6503 90.9372 67.8588 109.412C79.4593 130.409 110.387 130.319 121.731 109.165C133.846 86.5744 115.678 61.2853 90.4899 63.9584Z" fill="#6FE9B8"/>
<path d="M91.242 74.9036C115.855 71.5747 123.138 104.767 102.005 112.847C85.6586 119.097 69.9273 103.138 76.4286 86.8925C78.7639 81.0569 84.9121 75.761 91.242 74.9036Z" fill="#6FE9B8"/>
</svg>

<?xml version="1.0" encoding="UTF-8"?>
<svg id="_圖層_1" data-name="圖層_1" xmlns="http://www.w3.org/2000/svg" version="1.1" viewBox="0 0 190 189">
  <!-- Generator: Adobe Illustrator 29.5.1, SVG Export Plug-In . SVG Version: 2.1.0 Build 141)  -->
  <defs>
    <style>
      .st0 {
        fill: #299ea7;
      }
    </style>
  </defs>
  <path class="st0" d="M88.99.17c76.18-4.38,126.38,78.86,85.93,144.08-35.32,56.94-117.54,59.82-156.77,5.44C-25.31,89.43,15.2,4.4,88.98.17h0ZM68.98,36.79c-21.62,1.58-31.79,14.56-32.78,35.55-.65,13.56-.65,30.64,0,44.2,1.01,21.25,11.55,34.28,33.43,35.66,33.34-2.83,81.3,13.3,83.63-35.66.65-13.62.68-30.95-.02-44.56-1.09-21.34-11.91-34.05-33.77-35.32-16.55.81-34.06-1.07-50.49.13h0Z"/>
  <path class="st0" d="M69.36,47.73c17.15-1.35,36.18.43,53.45.32,12.24,1.78,18.29,9.64,19.49,21.66-.87,16.12,1.18,33.47,0,49.45-1.02,13.75-9.33,21.16-22.84,22.09-15.93,1.1-33.04-.83-49.09.02-13.52-.45-22.2-8.58-23.2-22.11-1.25-16.87.53-35.78.48-52.74,2.17-11.92,9.91-17.75,21.71-18.69h0ZM124.08,57.91c-3.66.67-5.46,4.87-4.23,8.21,2.28,6.14,11.44,4.59,11.89-1.69.32-4.39-3.44-7.29-7.66-6.51h0ZM90.49,63.96c-21.22,2.25-32.84,26.98-22.63,45.45,11.6,21,42.53,20.91,53.87-.25,12.11-22.59-6.05-47.88-31.24-45.21Z"/>
  <path class="st0" d="M91.24,74.9c24.61-3.33,31.9,29.86,10.76,37.94-16.35,6.25-32.08-9.71-25.58-25.95,2.34-5.84,8.48-11.13,14.81-11.99Z"/>
</svg>
